pro/src/icons/stroke-france.svg

<svg width="48" height="48" viewBox="0 0 48 48" fill="none" xmlns="http://www.w3.org/2000/svg">
<path id="icon" fill-rule="evenodd" clip-rule="evenodd" d="M27.2425 3.52989C25.4877 3.09118 24.1611 3.30145 23.5528 3.6056C23.1229 3.82052 22.9155 4.30324 23.0316 4.75044C23.0289 4.76125 23.0262 4.77213 23.0238 4.7831C22.8767 5.44531 22.5101 6.55103 21.9048 7.61975C21.293 8.70009 20.5003 9.63184 19.5528 10.1056C17.4567 11.1536 15.1456 10.8278 14.3162 10.5513C13.7923 10.3767 13.226 10.6599 13.0513 11.1838C12.8767 11.7077 13.1598 12.2741 13.6838 12.4487C14.8544 12.8389 17.7432 13.2464 20.4472 11.8945C21.8997 11.1682 22.9403 9.84997 23.6452 8.60531C24.3348 7.38743 24.7633 6.13385 24.9584 5.29506C24.9977 5.29147 25.039 5.28837 25.0823 5.28589C25.487 5.26266 26.0526 5.29397 26.7575 5.47017C27.1219 5.56129 27.3034 5.67751 27.4312 5.79793C27.5806 5.9388 27.7213 6.14527 27.932 6.53663C27.9938 6.65143 28.0586 6.77622 28.1284 6.9107C28.5302 7.68506 29.0988 8.7807 30.2318 10.1402C31.0284 11.0962 32.2051 11.6927 33.3884 12.1012C34.5852 12.5144 35.9105 12.775 37.1091 12.9842C37.413 13.0373 37.706 13.0867 37.987 13.134L37.9871 13.134C38.8508 13.2796 39.6012 13.4061 40.2089 13.5616C40.6092 13.664 40.8714 13.7614 41.0254 13.8467C41.0333 13.8511 41.0405 13.8552 41.0472 13.8591C41.0519 13.8619 41.0563 13.8645 41.0604 13.867C41.3511 15.072 41.4073 15.9528 41.3291 16.6405C41.25 17.3359 41.0279 17.883 40.697 18.4104C40.369 18.9331 39.9468 19.421 39.4128 20.038L39.3127 20.1538C38.7459 20.8093 38.0959 21.5741 37.4636 22.5505C36.5764 23.9207 37.6802 25.5001 39.118 25.5001H39.5512L39.8293 30.7833C39.8649 31.4598 40.0842 32.0768 40.332 32.6104C40.5221 33.0196 40.7559 33.4325 40.964 33.8002L40.9646 33.8011C41.0216 33.9018 41.0767 33.9992 41.1284 34.0921C41.6718 35.0677 41.8814 35.65 41.7404 36.1664C41.6608 36.4578 41.356 36.983 40.4 37.7C39.5462 38.3404 38.7885 38.5809 38.086 38.6359C37.3586 38.6928 36.631 38.5565 35.8134 38.3445C35.6241 38.2954 35.4266 38.2402 35.2218 38.183L35.2212 38.1828C33.7824 37.7806 31.9814 37.2772 30.1061 38.0809C29.1993 38.4695 28.5523 38.8318 28.1046 39.2262C27.6104 39.6616 27.3801 40.1172 27.2738 40.5956C27.2171 40.8506 27.1951 41.0459 27.1759 41.2157C27.1317 41.6074 27.1028 41.8629 26.7 42.4C25.9117 43.4511 24.9194 43.3124 24.4883 43.1247C24.4123 43.0916 24.3024 43.046 24.1704 43.0099C22.2866 42.4944 17.8314 41.2231 14.3162 40.0513C13.5552 39.7977 13.1976 39.5116 13.0356 39.3031C12.8932 39.1198 12.8502 38.9329 12.8793 38.7003C12.9505 38.1324 13.4506 37.4056 14.0547 36.8461C14.1959 36.7153 14.3449 36.5448 14.462 36.3274C15.2081 34.9417 15.5 33.2768 15.5 28.5001C15.5 27.5499 15.4816 26.2652 15.3398 25.0716C15.2689 24.4747 15.1643 23.8745 15.0055 23.3365C14.8513 22.8137 14.6222 22.2655 14.2537 21.8429C13.1779 20.6089 11.6468 19.8695 10.2637 19.3981C9.02734 18.9766 7.80739 18.7376 6.9876 18.5769L6.98715 18.5768C6.88347 18.5565 6.7862 18.5375 6.69611 18.5194C5.85024 18.3503 5.34561 17.7696 5.12923 17.1637C5.01889 16.8547 5.00191 16.5854 5.02767 16.4161C5.03061 16.3968 5.03372 16.3804 5.0368 16.3665C5.07746 16.3547 5.13324 16.3398 5.20701 16.3224C5.39044 16.2792 5.63069 16.233 5.92156 16.1852C6.50203 16.0898 7.23881 15.9952 8.0357 15.9064C9.6271 15.7291 11.4133 15.5802 12.5712 15.4975C13.1221 15.4581 13.5368 14.9797 13.4974 14.4288C13.4581 13.8779 12.9796 13.4632 12.4287 13.5026C11.2534 13.5865 9.43955 13.7376 7.81428 13.9187C7.00284 14.0091 6.22711 14.1082 5.59717 14.2117C5.28283 14.2634 4.9934 14.318 4.74844 14.3757C4.5254 14.4282 4.26425 14.4999 4.05278 14.6056C3.39493 14.9345 3.13024 15.5908 3.05043 16.1152C2.96682 16.6647 3.04359 17.2703 3.24575 17.8364C3.65437 18.9805 4.64974 20.1498 6.30387 20.4806C6.40045 20.4999 6.50176 20.5198 6.60729 20.5406L6.60764 20.5407C7.43398 20.7031 8.51899 20.9164 9.61845 21.2911C10.8685 21.7172 12.0096 22.3123 12.7462 23.1572C12.8402 23.265 12.9673 23.4959 13.0873 23.9024C13.2027 24.2937 13.2903 24.7732 13.3538 25.3075C13.4808 26.3766 13.5 27.5616 13.5 28.5001C13.5 33.2855 13.1824 34.4797 12.7075 35.3671C12.705 35.3697 12.7012 35.3736 12.6957 35.3787C11.9871 36.0351 11.0553 37.1706 10.8948 38.4518C10.8082 39.1438 10.9495 39.8781 11.4564 40.5304C11.9437 41.1573 12.7005 41.6209 13.6838 41.9487C17.2484 43.1369 21.7424 44.419 23.6415 44.9387C23.6436 44.9394 23.6564 44.9439 23.6902 44.9586C24.6875 45.3927 26.7894 45.6142 28.3 43.6C29.0642 42.5811 29.1549 41.6796 29.1991 41.2401C29.2083 41.149 29.2154 41.0778 29.2262 41.0295C29.2449 40.9454 29.2646 40.8697 29.4266 40.7269C29.6352 40.5433 30.0506 40.2806 30.8939 39.9192C32.0801 39.4108 33.1495 39.6995 34.6387 40.1014L34.6388 40.1015C34.8538 40.1595 35.0775 40.2198 35.3115 40.2805C36.1814 40.5061 37.1726 40.7135 38.2421 40.6298C39.3365 40.5441 40.4538 40.1597 41.6 39.3C42.717 38.4623 43.4221 37.6005 43.6698 36.6933C44.0525 35.2915 43.3758 34.017 42.8758 33.119C42.8083 32.9978 42.7427 32.8819 42.6792 32.7696C42.4785 32.4148 42.2988 32.0971 42.1459 31.7679C41.9502 31.3465 41.8432 30.9945 41.8265 30.6781L41.5485 25.3949C41.4926 24.3327 40.615 23.5001 39.5512 23.5001H39.2326C39.7568 22.7113 40.2974 22.0728 40.8256 21.4619L40.9521 21.3158C41.4572 20.7329 41.9777 20.1322 42.3911 19.4734C42.8563 18.7319 43.1984 17.9025 43.3163 16.8666C43.4324 15.8462 43.3251 14.6774 42.9701 13.2575C42.819 12.6528 42.3577 12.2984 41.9948 12.0973C41.6171 11.888 41.1598 11.7404 40.7046 11.624C40.0081 11.4458 39.1379 11.2993 38.2513 11.1501C37.9853 11.1053 37.7177 11.0602 37.453 11.014C36.2661 10.8069 35.0759 10.568 34.0411 10.2107C32.9927 9.84875 32.2215 9.40383 31.7682 8.85984C30.782 7.6764 30.3089 6.76742 29.9109 6.00257L29.9108 6.00244C29.8365 5.8597 29.7649 5.72198 29.693 5.58843C29.4662 5.16728 29.2007 4.7175 28.8032 4.34275C28.384 3.94754 27.8781 3.68877 27.2425 3.52989ZM41.1134 13.9044C41.1132 13.9045 41.1113 13.9029 41.108 13.8995C41.1119 13.9027 41.1135 13.9044 41.1134 13.9044ZM5.05825 16.3011C5.05846 16.3014 5.05704 16.3048 5.05336 16.3104C5.05619 16.3036 5.05804 16.3008 5.05825 16.3011Z" fill="currentColor"/>
</svg>

<svg xmlns="http://www.w3.org/2000/svg" width="48" height="48" fill="none"><path id="icon" fill="currentColor" fill-rule="evenodd" d="M27.243 3.53c-1.755-.439-3.082-.229-3.69.076a1 1 0 0 0-.521 1.144l-.008.033c-.147.662-.514 1.768-1.12 2.837-.611 1.08-1.404 2.012-2.351 2.486-2.096 1.048-4.407.722-5.237.445a1 1 0 0 0-.632 1.898c1.17.39 4.06.797 6.763-.554 1.453-.727 2.493-2.045 3.198-3.29a13.1 13.1 0 0 0 1.313-3.31l.124-.01c.405-.022.97.009 1.675.185.365.091.546.208.674.328.15.14.29.347.501.739q.093.172.196.374c.402.774.97 1.87 2.104 3.23.796.955 1.973 1.552 3.156 1.96 1.197.413 2.523.674 3.721.883q.456.08.878.15c.864.146 1.614.272 2.222.428.4.102.662.2.816.285l.022.012.013.008c.291 1.205.347 2.086.27 2.773a4.06 4.06 0 0 1-.633 1.77c-.328.523-.75 1.011-1.284 1.628l-.1.116c-.567.655-1.217 1.42-1.85 2.396-.887 1.37.217 2.95 1.655 2.95h.433l.278 5.283c.036.677.255 1.294.503 1.827.19.41.424.822.632 1.19v.001q.087.15.164.291c.544.976.753 1.558.612 2.074-.08.292-.384.817-1.34 1.534-.854.64-1.611.88-2.314.936-.727.057-1.455-.08-2.273-.292q-.284-.075-.591-.161c-1.44-.402-3.24-.906-5.116-.102-.907.388-1.554.75-2.001 1.145-.495.436-.725.891-.831 1.37-.057.255-.079.45-.098.62-.044.391-.073.647-.476 1.184-.788 1.051-1.78.912-2.212.725a2 2 0 0 0-.318-.115c-1.883-.516-6.339-1.787-9.854-2.959-.76-.253-1.118-.54-1.28-.748a.76.76 0 0 1-.157-.603c.072-.568.572-1.294 1.176-1.854.14-.13.29-.301.407-.519.746-1.385 1.038-3.05 1.038-7.827 0-.95-.018-2.235-.16-3.428a10.7 10.7 0 0 0-.335-1.735c-.154-.523-.383-1.072-.751-1.494-1.076-1.234-2.607-1.974-3.99-2.445-1.237-.421-2.457-.66-3.276-.821l-.292-.058a2.06 2.06 0 0 1-1.567-1.355c-.11-.31-.127-.579-.101-.748l.009-.05q.06-.017.17-.044c.183-.043.424-.089.715-.137a43 43 0 0 1 2.114-.279c1.591-.177 3.377-.326 4.535-.409a1 1 0 1 0-.142-1.994c-1.176.083-2.99.235-4.615.416-.811.09-1.587.19-2.217.293-.314.051-.604.106-.849.164a3.3 3.3 0 0 0-.695.23c-.658.329-.923.985-1.003 1.51-.083.549-.006 1.154.196 1.72.408 1.145 1.404 2.314 3.058 2.645l.303.06c.827.162 1.912.375 3.011.75 1.25.426 2.392 1.021 3.128 1.866.094.108.221.339.341.745.116.392.203.871.267 1.406.127 1.069.146 2.254.146 3.192 0 4.785-.318 5.98-.793 6.867l-.011.012c-.709.656-1.64 1.792-1.801 3.073a2.76 2.76 0 0 0 .561 2.078c.488.627 1.245 1.09 2.228 1.419 3.564 1.188 8.058 2.47 9.958 2.99l.048.02c.997.434 3.1.655 4.61-1.359a4.4 4.4 0 0 0 .9-2.36q.01-.137.026-.21c.019-.085.039-.16.2-.303.21-.184.625-.446 1.468-.808 1.186-.508 2.256-.22 3.745.182q.322.088.672.18c.87.225 1.862.433 2.931.349 1.095-.086 2.212-.47 3.358-1.33 1.117-.838 1.822-1.7 2.07-2.607.383-1.401-.294-2.676-.794-3.574l-.197-.35c-.2-.354-.38-.672-.533-1.001-.196-.422-.303-.774-.32-1.09l-.278-5.283a2 2 0 0 0-1.997-1.895h-.318c.524-.789 1.064-1.427 1.593-2.038l.126-.146c.505-.583 1.026-1.184 1.44-1.843.464-.741.806-1.57.924-2.606.116-1.02.01-2.19-.346-3.61-.151-.604-.612-.959-.975-1.16-.378-.209-.835-.357-1.29-.473-.697-.178-1.567-.325-2.454-.474l-.798-.136c-1.187-.207-2.377-.446-3.412-.803-1.048-.362-1.82-.807-2.273-1.351-.986-1.184-1.46-2.093-1.857-2.857q-.111-.214-.218-.415c-.227-.42-.492-.87-.89-1.245-.419-.395-.925-.654-1.56-.813m13.87 10.374-.005-.005zM5.058 16.301l-.005.01z" clip-rule="evenodd"/></svg>
